dist/images/icon-mentorship.svg

<svg width="40" height="40" viewBox="0 0 40 40" fill="none" xmlns="http://www.w3.org/2000/svg">
<g clip-path="url(#clip0_5_133)">
<path fill-rule="evenodd" clip-rule="evenodd" d="M34.3733 37.4567L31.6667 36.0083L28.9583 37.4567L29.4983 34.435L27.285 32.3067L30.3267 31.8867L31.6667 29.1233L33.0067 31.8867L36.0483 32.3067L33.8333 34.435L34.3733 37.4567ZM22.7067 37.4567L20 36.0083L17.2917 37.4567L17.8333 34.435L15.6183 32.3067L18.66 31.8867L20 29.1233L21.34 31.8867L24.3817 32.3067L22.1667 34.435L22.7067 37.4567ZM11.04 37.4567L8.33333 36.0083L5.625 37.4567L6.16667 34.435L3.95167 32.3067L6.99333 31.8867L8.33333 29.1233L9.67333 31.8867L12.715 32.3067L10.5 34.435L11.04 37.4567ZM38.3333 26.6233H1.66667C0.746667 26.6233 0 27.3683 0 28.29V38.29C0 39.2117 0.746667 39.9567 1.66667 39.9567H38.3333C39.255 39.9567 40 39.2117 40 38.29V28.29C40 27.3683 39.255 26.6233 38.3333 26.6233ZM0.00333333 24.9567H8.33333C8.34667 22.9333 8.33167 21.1417 8.33333 19.935C8.34167 13.28 11.2483 14.7417 11.2483 8.83C11.2483 6.31833 9.61 4.95667 7.50167 4.95667C4.38667 4.95667 2.22 7.935 5.17 13.505C6.13833 15.3367 4.13667 15.77 1.98667 16.2667C0.123333 16.6967 0 18.0117 0 19.5883L0.00333333 24.9567ZM38.0133 16.2667C35.8633 15.77 33.8617 15.3367 34.83 13.505C37.78 7.935 35.6133 4.95667 32.4983 4.95667C30.39 4.95667 28.7517 6.31833 28.7517 8.83C28.7517 14.37 31.6167 13.3367 31.6667 19.9567C31.68 21.5767 31.6517 22.1417 31.6667 24.9567H39.9967L40 19.5883C40 18.0117 39.8767 16.6967 38.0133 16.2667ZM29.995 24.9567H10.0033L10 19.7467C10 17.65 10.1667 15.61 12.6467 15.0367C15.4533 14.3883 18.22 13.81 16.8883 11.355C12.945 4.08167 15.765 -0.043335 19.9983 -0.043335C24.15 -0.043335 27.0417 3.92833 23.1083 11.355C21.8167 13.795 24.485 14.375 27.35 15.0367C29.8333 15.61 29.9983 17.6517 29.9983 19.7517L29.995 24.9567Z" fill="white"/>
</g>
<defs>
<clipPath id="clip0_5_133">
<rect width="40" height="40" fill="white"/>
</clipPath>
</defs>
</svg>

<svg width="40" height="40" fill="none" xmlns="http://www.w3.org/2000/svg"><g clip-path="url(#a)"><path fill-rule="evenodd" clip-rule="evenodd" d="m34.373 37.457-2.706-1.449-2.709 1.449.54-3.022-2.213-2.128 3.042-.42 1.34-2.764 1.34 2.764 3.041.42-2.215 2.128.54 3.022Zm-11.666 0L20 36.008l-2.708 1.449.541-3.022-2.215-2.128 3.042-.42L20 29.123l1.34 2.764 3.042.42-2.215 2.128.54 3.022Zm-11.667 0-2.707-1.449-2.708 1.449.542-3.022-2.215-2.128 3.041-.42 1.34-2.764 1.34 2.764 3.042.42-2.215 2.128.54 3.022Zm27.293-10.834H1.667c-.92 0-1.667.745-1.667 1.667v10c0 .922.747 1.667 1.667 1.667h36.666c.922 0 1.667-.745 1.667-1.667v-10c0-.922-.745-1.667-1.667-1.667ZM.003 24.957h8.33c.014-2.024-.001-3.815 0-5.022.009-6.655 2.915-5.193 2.915-11.105 0-2.512-1.638-3.873-3.746-3.873-3.115 0-5.282 2.978-2.332 8.548.968 1.832-1.033 2.265-3.183 2.762C.123 16.697 0 18.012 0 19.588l.003 5.369Zm38.01-8.69c-2.15-.497-4.151-.93-3.183-2.762 2.95-5.57.783-8.548-2.332-8.548-2.108 0-3.746 1.361-3.746 3.873 0 5.54 2.865 4.507 2.915 11.127.013 1.62-.015 2.185 0 5h8.33L40 19.588c0-1.576-.123-2.891-1.987-3.321Zm-8.018 8.69H10.003L10 19.747c0-2.097.167-4.137 2.647-4.71 2.806-.649 5.573-1.227 4.241-3.682-3.943-7.273-1.123-11.398 3.11-11.398 4.152 0 7.044 3.971 3.11 11.398-1.291 2.44 1.377 3.02 4.242 3.682 2.483.573 2.648 2.615 2.648 4.715l-.003 5.205Z" fill="#fff"/></g><defs><clipPath id="a"><path fill="#fff" d="M0 0h40v40H0z"/></clipPath></defs></svg>
